X: 933
T: Whitney's fancy
C: anon.
O: Ireland
B: Francis O'Neill: "The Dance Music of Ireland" (1907) no. 933
R: Hornpipe
Z: Transcribed by Frank Nordberg - http://www.musicaviva.com
F: http://www.musicaviva.com/abc/tunes/ireland/oneill-1001/oneill-1001-093
3.abc
m: Tn2 = (3n/o/n/ m/n/
M: C|
L: 1/8
K: G
d2|g3a g>fe>d|e>dB>G A>GE>F|G>FG>A B>AB>d|e>d(c>e) d2(3(def)|gfga g>fe>d|
d>cg>e d>BA>B|G>AG>E D>CB,>A,|B,2G,2G,2:|
|:D2|G>AB>A G>A TB2|A>Bc>B A>Bc2|d>ef>e d>cB>A|G>AB>c Td2D2|G>AB>A G>ATB2
|A>Bc>B A>Bc2|d>ef>e d>cA>F|G2G2G2:|
W:
W:
W: From Musica Viva - http://www.musicaviva.com
W: the Internet center for free sheet music downloads.


